X: 31
M:6/8
L:1/8
K:F
c/2B/2|AFF GAB|cff edB|AFF GBB|GEC GAB|
|:f/2g/2|aff fgf|ecc c2 g/2a/2|bge fga|bge f2 g|
agf gec|def ecB|A2 F GcB|GFF F2:||

